X: 463
T: Sibao langong
L: 1/8
M: 2/4
K: A
e2a b [I:setbarnb 1]| 
f e c B | 
b3e' | 
c' ba2 | 
b f' e' d' | 
b d' a f | 
e a d B | 
e4 | 
a2f e | 
b2e'2 | 
a f b e' | 
f e d B | 
e c' b a | 
e a e d | 
B3A | 
B4 |]

@@@ Tune index: 9337
